dev-utils/pieces/svg/fairy/compressed/knightridersB.svg

<svg xmlns="http://www.w3.org/2000/svg" version="1.1" viewBox="0 0 45 45"><g fill="#000" stroke="#000" stroke-linecap="round" stroke-linejoin="round" stroke-width="1.5"><path d="M21.5 10c11 1 17 8 16.5 29H15c0-9 10-6.5 8-21"/><path d="M24 18c.38 2.91-5.55 7.37-8 9-3 2-2.82 4.34-5 4-1.042-.94 1.41-3.04 0-3-1 0 .19 1.23-1 2-1 0-4.003 1-4-4 0-2 6-12 6-12s1.89-1.9 2-3.5c-.5-1-.5-2.5-2.5-5 1.5-1 5 4.5 5 4.5h2c.5-2 1-4 .5-5.5C20.5 4 21 7 21.5 10"/></g><defs><linearGradient id="a" x1="0%" x2="100%" y1="0%" y2="0%" spreadMethod="pad"><stop offset="30%" stop-color="#000" stop-opacity=".6"/><stop offset="100%" stop-color="#000" stop-opacity="0"/></linearGradient></defs><path d="M30 12h7.5v2H30zm4 4h6.5v2H34zm2 4h6v2h-6zm1 5h5.5v2H37zm1 5h5v2h-5zm0 5h5v2h-5z" fill="url(#a)"/><g fill="#FFF" stroke="#FFF" stroke-linejoin="round" stroke-width="1.5"><path d="M12.8 13c-1 1-2.8 4-3.7 6L33 16l-6-5Z" stroke="none"/><path d="m24.55 10.4-.45 1.45.5.15c3.15 1 5.65 2.49 7.9 6.75S35.75 29.06 35.25 39l-.05.5h2.25l.05-.5c.5-10.06-.88-16.85-3.25-21.34-2.37-4.49-5.79-6.64-9.19-7.16l-.51-.1Z" stroke="none"/><path d="M9.5 25.5a.5.5 0 1 1-1 0 .5.5 0 1 1 1 0Z"/></g><path d="M15.8 14.75a.5 1.5 60 1 1-2.6 1.5.5 1.5 60 1 1 2.6-1.5Z" fill="#000" stroke="#000" stroke-linejoin="round" stroke-width="1.5"/></svg>

<?xml version="1.0" encoding="UTF-8" standalone="no"?>
<!--
	Vágtató (fekete)
	Készült: a knight-b.svg felhasználásával
	Felhasználási feltételek: Nevezd meg! - Így add tovább! (Creative Commons)
	Uray M. János
	2013-2018
-->
<!DOCTYPE svg PUBLIC "-//W3C//DTD SVG 1.1//EN" "http://www.w3.org/Graphics/SVG/1.1/DTD/svg11.dtd">
<svg xmlns="http://www.w3.org/2000/svg" version="1.1" width="128" height="128" viewBox="0 0 45 45">
	<!-- alap -->
	<g fill="#000" stroke="#000" stroke-width="1.5" stroke-linecap="round" stroke-linejoin="round">
		<!-- test -->
		<path d="M 21.5,10 C 32.5,11 38.5,18 38,39 L 15,39 C 15,30 25,32.5 23,18"/>
		<!-- fej -->
		<path d="M 24,18 C 24.38,20.91 18.45,25.37 16,27 C 13,29 13.18,31.34 11,31 C 9.958,30.06 12.41,27.96 11,28 C 10,28 11.19,29.23 10,30 C 9,30 5.997,31 6,26 C 6,24 12,14 12,14 C 12,14 13.89,12.1 14,10.5 C 13.5,9.5 13.5,8.0 11.5,5.5 C 13.0,4.5 16.5,10 16.5,10 L 18.5,10 C 19.0,8 19.5,6 19.0,4.5 C 20.5,4.0 21.0,7 21.5,10"/>
	</g>
	<!-- sebességvonalak -->
	<defs>
		<linearGradient id="speed-grad" x1="0%" y1="0%" x2="100%" y2="0%" spreadMethod="pad">
			<stop offset="30%" stop-color="#000" stop-opacity="0.6"/>
			<stop offset="100%" stop-color="#000" stop-opacity="0"/>
		</linearGradient>
	</defs>
	<g>
		<rect fill="url(#speed-grad)" x="30.0" y="12" width="7.5" height="2"/>
		<rect fill="url(#speed-grad)" x="34.0" y="16" width="6.5" height="2"/>
		<rect fill="url(#speed-grad)" x="36.0" y="20" width="6.0" height="2"/>
		<rect fill="url(#speed-grad)" x="37.0" y="25" width="5.5" height="2"/>
		<rect fill="url(#speed-grad)" x="38.0" y="30" width="5.0" height="2"/>
		<rect fill="url(#speed-grad)" x="38.0" y="35" width="5.0" height="2"/>
	</g>
	<!-- vonalak -->
	<g fill="#FFF" stroke="#FFF" stroke-width="1.5" stroke-linejoin="round">
		<!-- szemkötő -->
		<path stroke="none" d="M 12.8,13 C 11.8,14 10.0,17 9.1,19 L 33,16 L 27,11 Z"/>
		<!-- hát -->
		<path stroke="none" d="M 24.55,10.4 L 24.1,11.85 L 24.6,12 C 27.75,13 30.25,14.49 32.5,18.75 C 34.75,23.01 35.75,29.06 35.25,39 L 35.2,39.5 L 37.45,39.5 L 37.5,39 C 38,28.94 36.62,22.15 34.25,17.66 C 31.88,13.17 28.46,11.02 25.06,10.5 L 24.55,10.4 Z"/>
		<!-- orr -->
		<path d="M 9.5 25.5 A 0.5,0.5,0 1,1 8.5,25.5 A 0.5,0.5,0 1,1 9.5,25.5 Z"/>
	</g>
	<!-- szem -->
	<g fill="#000" stroke="#000" stroke-width="1.5" stroke-linejoin="round">
		<path d="M 15.8,14.75 A 0.5,1.5,60 1,1 13.2,16.25 A 0.5,1.5,60 1,1 15.8,14.75 Z"/>
	</g>
</svg>
